static/img/device/component-fixing-screws2.svg

<svg width="45" height="84" viewBox="0 0 45 84" fill="none" xmlns="http://www.w3.org/2000/svg">
<g clip-path="url(#clip0_75_3504)">
<path d="M13.78 9.28999L19.33 3.15999L19.27 1.54999C19.21 -0.380006 0.170007 -0.160006 0.250007 2.20999L0.310007 3.82999L6.27001 9.55999L8.98001 66.91L11.75 77.69C12.02 78.6 12.86 78.52 13.01 77.64L15.03 66.7L13.77 9.29999L13.78 9.28999Z" fill="white"/>
<path d="M11.76 8.12L14.15 2.52" stroke="#B3B3B3" stroke-width="0.3" stroke-linecap="round" stroke-linejoin="round"/>
<path d="M7.29 8.27L3.77 3.09" stroke="#B3B3B3" stroke-width="0.3" stroke-linecap="round" stroke-linejoin="round"/>
<path d="M6.27 9.54999C6.24 8.61999 13.76 8.52999 13.78 9.28999" stroke="black" stroke-width="0.3" stroke-linecap="round" stroke-linejoin="round"/>
<path d="M0.310005 3.81999C0.230005 1.44999 19.27 1.22999 19.33 3.15999" stroke="black" stroke-width="0.3" stroke-linecap="round" stroke-linejoin="round"/>
<mask id="mask0_75_3504" style="mask-type:luminance" maskUnits="userSpaceOnUse" x="0" y="0" width="20" height="79">
<path d="M13.78 9.28999L19.33 3.15999L19.27 1.54999C19.21 -0.380006 0.170007 -0.160006 0.250007 2.20999L0.310007 3.82999L6.27001 9.55999L8.98001 66.91L11.75 77.69C12.02 78.6 12.86 78.52 13.01 77.64L15.03 66.7L13.77 9.29999L13.78 9.28999Z" fill="white"/>
</mask>
<g mask="url(#mask0_75_3504)">
<path d="M6.12001 14.2C6.29001 10.81 12.72 9.8 14.27 10.91" stroke="#999999" stroke-width="0.3" stroke-linecap="round" stroke-linejoin="round"/>
<path d="M6.28001 18.26C6.45001 14.89 12.84 13.89 14.37 15" stroke="#999999" stroke-width="0.3" stroke-linecap="round" stroke-linejoin="round"/>
<path d="M6.44002 22.32C6.61002 18.97 12.95 17.98 14.48 19.08" stroke="#999999" stroke-width="0.3" stroke-linecap="round" stroke-linejoin="round"/>
<path d="M6.60001 26.38C6.77001 23.05 13.06 22.07 14.58 23.16" stroke="#999999" stroke-width="0.3" stroke-linecap="round" stroke-linejoin="round"/>
<path d="M6.77 30.44C6.94 27.14 13.19 26.16 14.69 27.24" stroke="#999999" stroke-width="0.3" stroke-linecap="round" stroke-linejoin="round"/>
<path d="M6.93001 34.5C7.09001 31.22 13.3 30.25 14.8 31.33" stroke="#999999" stroke-width="0.3" stroke-linecap="round" stroke-linejoin="round"/>
<path d="M7.09001 38.56C7.25001 35.3 13.42 34.34 14.9 35.41" stroke="#999999" stroke-width="0.3" stroke-linecap="round" stroke-linejoin="round"/>
<path d="M7.26001 42.62C7.42001 39.39 13.54 38.43 15.01 39.49" stroke="#999999" stroke-width="0.3" stroke-linecap="round" stroke-linejoin="round"/>
<path d="M7.42001 46.69C7.58001 43.48 13.65 42.53 15.12 43.59" stroke="#999999" stroke-width="0.3" stroke-linecap="round" stroke-linejoin="round"/>
<path d="M7.58002 50.75C7.74002 47.57 13.77 46.62 15.22 47.67" stroke="#999999" stroke-width="0.3" stroke-linecap="round" stroke-linejoin="round"/>
<path d="M7.75002 54.81C7.91002 51.65 13.89 50.71 15.33 51.75" stroke="#999999" stroke-width="0.3" stroke-linecap="round" stroke-linejoin="round"/>
<path d="M7.91 58.87C8.07 55.73 14 54.8 15.43 55.84" stroke="#999999" stroke-width="0.3" stroke-linecap="round" stroke-linejoin="round"/>
<path d="M8.07001 62.93C8.23001 59.82 14.12 58.9 15.54 59.92" stroke="#999999" stroke-width="0.3" stroke-linecap="round" stroke-linejoin="round"/>
<path d="M8.24001 66.99C8.39001 63.9 14.24 62.99 15.65 64" stroke="#999999" stroke-width="0.3" stroke-linecap="round" stroke-linejoin="round"/>
<path d="M9.16 70.51C9.29 67.88 14.09 67.03 15.57 67.76" stroke="#999999" stroke-width="0.3" stroke-linecap="round" stroke-linejoin="round"/>
<path d="M10.02 73.64C10.13 71.56 14.06 70.94 15.01 71.63" stroke="#999999" stroke-width="0.3" stroke-linecap="round" stroke-linejoin="round"/>
<path d="M10.94 77.13C11.01 75.79 13.19 75.25 14.27 75.45" stroke="#999999" stroke-width="0.3" stroke-linecap="round" stroke-linejoin="round"/>
</g>
<path d="M13.78 9.28999L19.33 3.15999L19.27 1.54999C19.21 -0.380006 0.170007 -0.160006 0.250007 2.20999L0.310007 3.82999L6.27001 9.55999L8.98001 66.91L11.75 77.69C12.02 78.6 12.86 78.52 13.01 77.64L15.03 66.7L13.77 9.29999L13.78 9.28999Z" stroke="black" stroke-width="0.5" stroke-linecap="round" stroke-linejoin="round"/>
<path d="M36.73 16.22L43.49 11.46L43.79 9.86999C44.15 7.96999 25.52 4.01999 25.09 6.33999L24.79 7.92999L29.35 14.82L19.44 71.37L19.78 82.49C19.84 83.44 20.68 83.54 21.02 82.72L25.39 72.49L36.74 16.21L36.73 16.22Z" fill="white"/>
<path d="M35.01 14.64L38.57 9.7" stroke="#B3B3B3" stroke-width="0.3" stroke-linecap="round" stroke-linejoin="round"/>
<path d="M30.62 13.8L28.32 7.97" stroke="#B3B3B3" stroke-width="0.3" stroke-linecap="round" stroke-linejoin="round"/>
<path d="M29.34 14.83C29.51 13.91 36.87 15.48 36.73 16.22" stroke="black" stroke-width="0.3" stroke-linecap="round" stroke-linejoin="round"/>
<path d="M24.78 7.93C25.22 5.6 43.84 9.56 43.49 11.45" stroke="black" stroke-width="0.3" stroke-linecap="round" stroke-linejoin="round"/>
<mask id="mask1_75_3504" style="mask-type:luminance" maskUnits="userSpaceOnUse" x="19" y="5" width="25" height="79">
<path d="M36.73 16.22L43.49 11.46L43.79 9.86999C44.15 7.96999 25.52 4.01999 25.09 6.33999L24.79 7.92999L29.35 14.82L19.44 71.37L19.78 82.49C19.84 83.44 20.68 83.54 21.02 82.72L25.39 72.49L36.74 16.21L36.73 16.22Z" fill="white"/>
</mask>
<g mask="url(#mask1_75_3504)">
<path d="M28.18 19.33C29.09 16.06 35.59 16.48 36.85 17.91" stroke="#999999" stroke-width="0.3" stroke-linecap="round" stroke-linejoin="round"/>
<path d="M27.45 23.33C28.35 20.08 34.8 20.5 36.06 21.92" stroke="#999999" stroke-width="0.3" stroke-linecap="round" stroke-linejoin="round"/>
<path d="M26.71 27.32C27.61 24.09 34.01 24.51 35.26 25.92" stroke="#999999" stroke-width="0.3" stroke-linecap="round" stroke-linejoin="round"/>
<path d="M25.98 31.32C26.87 28.11 33.23 28.53 34.47 29.93" stroke="#999999" stroke-width="0.3" stroke-linecap="round" stroke-linejoin="round"/>
<path d="M25.25 35.32C26.14 32.13 32.45 32.55 33.68 33.94" stroke="#999999" stroke-width="0.3" stroke-linecap="round" stroke-linejoin="round"/>
<path d="M24.52 39.32C25.4 36.16 31.67 36.57 32.89 37.95" stroke="#999999" stroke-width="0.3" stroke-linecap="round" stroke-linejoin="round"/>
<path d="M23.79 43.32C24.66 40.18 30.89 40.59 32.1 41.96" stroke="#999999" stroke-width="0.3" stroke-linecap="round" stroke-linejoin="round"/>
<path d="M23.06 47.32C23.93 44.2 30.1 44.61 31.31 45.97" stroke="#999999" stroke-width="0.3" stroke-linecap="round" stroke-linejoin="round"/>
<path d="M22.33 51.31C23.19 48.22 29.32 48.62 30.52 49.97" stroke="#999999" stroke-width="0.3" stroke-linecap="round" stroke-linejoin="round"/>
<path d="M21.6 55.31C22.45 52.24 28.54 52.64 29.73 53.98" stroke="#999999" stroke-width="0.3" stroke-linecap="round" stroke-linejoin="round"/>
<path d="M20.87 59.31C21.72 56.26 27.76 56.66 28.94 57.99" stroke="#999999" stroke-width="0.3" stroke-linecap="round" stroke-linejoin="round"/>
<path d="M20.14 63.31C20.98 60.28 26.98 60.68 28.15 62" stroke="#999999" stroke-width="0.3" stroke-linecap="round" stroke-linejoin="round"/>
<path d="M19.41 67.31C20.25 64.31 26.2 64.7 27.36 66.01" stroke="#999999" stroke-width="0.3" stroke-linecap="round" stroke-linejoin="round"/>
<path d="M18.68 71.31C19.51 68.33 25.41 68.72 26.56 70.02" stroke="#999999" stroke-width="0.3" stroke-linecap="round" stroke-linejoin="round"/>
<path d="M18.82 74.94C19.53 72.4 24.39 72.62 25.67 73.66" stroke="#999999" stroke-width="0.3" stroke-linecap="round" stroke-linejoin="round"/>
<path d="M18.96 78.19C19.52 76.18 23.49 76.45 24.27 77.32" stroke="#999999" stroke-width="0.3" stroke-linecap="round" stroke-linejoin="round"/>
<path d="M19.1 81.79C19.46 80.5 21.71 80.45 22.72 80.88" stroke="#999999" stroke-width="0.3" stroke-linecap="round" stroke-linejoin="round"/>
</g>
<path d="M36.73 16.22L43.49 11.46L43.79 9.86999C44.15 7.96999 25.52 4.01999 25.09 6.33999L24.79 7.92999L29.35 14.82L19.44 71.37L19.78 82.49C19.84 83.44 20.68 83.54 21.02 82.72L25.39 72.49L36.74 16.21L36.73 16.22Z" stroke="black" stroke-width="0.5" stroke-linecap="round" stroke-linejoin="round"/>
</g>
<defs>
<clipPath id="clip0_75_3504">
<rect width="44.04" height="83.54" fill="white"/>
</clipPath>
</defs>
</svg>

<svg xmlns="http://www.w3.org/2000/svg" width="45" height="84" fill="none" viewBox="0 0 45 84"><g clip-path="url(#a)"><path fill="#fff" d="m13.78 9.29 5.55-6.13-.06-1.61C19.21-.38.17-.16.25 2.21l.06 1.62 5.96 5.73 2.71 57.35 2.77 10.78c.27.91 1.11.83 1.26-.05l2.02-10.94-1.26-57.4z"/><path stroke="#b3b3b3" stroke-linecap="round" stroke-linejoin="round" stroke-width=".3" d="m11.76 8.12 2.39-5.6M7.29 8.27 3.77 3.09"/><path stroke="#000" stroke-linecap="round" stroke-linejoin="round" stroke-width=".3" d="M6.27 9.55c-.03-.93 7.49-1.02 7.51-.26M.31 3.82c-.08-2.37 18.96-2.59 19.02-.66"/><mask id="b" width="20" height="79" x="0" y="0" maskUnits="userSpaceOnUse" style="mask-type:luminance"><path fill="#fff" d="m13.78 9.29 5.55-6.13-.06-1.61C19.21-.38.17-.16.25 2.21l.06 1.62 5.96 5.73 2.71 57.35 2.77 10.78c.27.91 1.11.83 1.26-.05l2.02-10.94-1.26-57.4z"/></mask><g stroke="#999" stroke-linecap="round" stroke-linejoin="round" stroke-width=".3" mask="url(#b)"><path d="M6.12 14.2c.17-3.39 6.6-4.4 8.15-3.29M6.28 18.26c.17-3.37 6.56-4.37 8.09-3.26M6.44 22.32c.17-3.35 6.51-4.34 8.04-3.24M6.6 26.38c.17-3.33 6.46-4.31 7.98-3.22M6.77 30.44c.17-3.3 6.42-4.28 7.92-3.2M6.93 34.5c.16-3.28 6.37-4.25 7.87-3.17M7.09 38.56c.16-3.26 6.33-4.22 7.81-3.15M7.26 42.62c.16-3.23 6.28-4.19 7.75-3.13M7.42 46.69c.16-3.21 6.23-4.16 7.7-3.1M7.58 50.75c.16-3.18 6.19-4.13 7.64-3.08M7.75 54.81c.16-3.16 6.14-4.1 7.58-3.06M7.91 58.87c.16-3.14 6.09-4.07 7.52-3.03M8.07 62.93c.16-3.11 6.05-4.03 7.47-3.01M8.24 66.99c.15-3.09 6-4 7.41-2.99M9.16 70.51c.13-2.63 4.93-3.48 6.41-2.75M10.02 73.64c.11-2.08 4.04-2.7 4.99-2.01M10.94 77.13c.07-1.34 2.25-1.88 3.33-1.68"/></g><path stroke="#000" stroke-linecap="round" stroke-linejoin="round" stroke-width=".5" d="m13.78 9.29 5.55-6.13-.06-1.61C19.21-.38.17-.16.25 2.21l.06 1.62 5.96 5.73 2.71 57.35 2.77 10.78c.27.91 1.11.83 1.26-.05l2.02-10.94-1.26-57.4z"/><path fill="#fff" d="m36.73 16.22 6.76-4.76.3-1.59c.36-1.9-18.27-5.85-18.7-3.53l-.3 1.59 4.56 6.89-9.91 56.55.34 11.12c.06.95.9 1.05 1.24.23l4.37-10.23 11.35-56.28z"/><path stroke="#b3b3b3" stroke-linecap="round" stroke-linejoin="round" stroke-width=".3" d="m35.01 14.64 3.56-4.94M30.62 13.8l-2.3-5.83"/><path stroke="#000" stroke-linecap="round" stroke-linejoin="round" stroke-width=".3" d="M29.34 14.83c.17-.92 7.53.65 7.39 1.39M24.78 7.93c.44-2.33 19.06 1.63 18.71 3.52"/><mask id="c" width="25" height="79" x="19" y="5" maskUnits="userSpaceOnUse" style="mask-type:luminance"><path fill="#fff" d="m36.73 16.22 6.76-4.76.3-1.59c.36-1.9-18.27-5.85-18.7-3.53l-.3 1.59 4.56 6.89-9.91 56.55.34 11.12c.06.95.9 1.05 1.24.23l4.37-10.23 11.35-56.28z"/></mask><g stroke="#999" stroke-linecap="round" stroke-linejoin="round" stroke-width=".3" mask="url(#c)"><path d="M28.18 19.33c.91-3.27 7.41-2.85 8.67-1.42M27.45 23.33c.9-3.25 7.35-2.83 8.61-1.41M26.71 27.32c.9-3.23 7.3-2.81 8.55-1.4M25.98 31.32c.89-3.21 7.25-2.79 8.49-1.39M25.25 35.32c.89-3.19 7.2-2.77 8.43-1.38M24.52 39.32c.88-3.16 7.15-2.75 8.37-1.37M23.79 43.32c.87-3.14 7.1-2.73 8.31-1.36M23.06 47.32c.87-3.12 7.04-2.71 8.25-1.35M22.33 51.31c.86-3.09 6.99-2.69 8.19-1.34M21.6 55.31c.85-3.07 6.94-2.67 8.13-1.33M20.87 59.31c.85-3.05 6.89-2.65 8.07-1.32M20.14 63.31c.84-3.03 6.84-2.63 8.01-1.31M19.41 67.31c.84-3 6.79-2.61 7.95-1.3M18.68 71.31c.83-2.98 6.73-2.59 7.88-1.29M18.82 74.94c.71-2.54 5.57-2.32 6.85-1.28M18.96 78.19c.56-2.01 4.53-1.74 5.31-.87M19.1 81.79c.36-1.29 2.61-1.34 3.62-.91"/></g><path stroke="#000" stroke-linecap="round" stroke-linejoin="round" stroke-width=".5" d="m36.73 16.22 6.76-4.76.3-1.59c.36-1.9-18.27-5.85-18.7-3.53l-.3 1.59 4.56 6.89-9.91 56.55.34 11.12c.06.95.9 1.05 1.24.23l4.37-10.23 11.35-56.28z"/></g><defs><clipPath id="a"><path fill="#fff" d="M0 0h44.04v83.54H0z"/></clipPath></defs></svg>
